X: 1
T:Banish Misfortune
M:6/8
L:1/8
Q:80
C:arr. Kent Hiestand
S:Jig
K:HP
{g}fed{g}cAG|
{g}Ad{c}d{g}cAG|
{gcd}c2A{g}ABA|  !
{g}cBc{g}dc{G}A|
{GAG}A3{g}cAG|
{g}AGA{g}cde|  !
{g}fed{g}cAG|
{g}Ad{c}d{gdG}d3:| |:
{gfg}f2d{g}dcd|  !
{gfg}f2gagf|
{gef}e2c{g}cBc|
{g}ede{a}ged|  !
{gfg}f2gagf|
{gef}e2f{a}gfe|
{g}fed{g}cAG|  !
{g}Ad{c}d{gdG}d3:| |:
{gfg}f2g{gef}e2f|
{g}ded{gcd}c2d|  !
{GAG}A3{g}GAG|
{gcd}c2e{g}dcA|
{g}cBc{g}cAG|  !
{g}AGA{g}cde|
{g}fed{g}cAG|
{g}Ad{c}d{gdG}d3:|  !
